lib/flags/m/533.svg

<svg xmlns="http://www.w3.org/2000/svg" fill="none" viewBox="0 0 20 15"><mask id="533_svg__a" width="20" height="15" x="0" y="0" mask-type="alpha" maskUnits="userSpaceOnUse"><path fill="#fff" d="M0 0H20V15H0z"/></mask><g mask="url(#533_svg__a)"><path fill="#5BA3DA" fill-rule="evenodd" d="M0 0V15H20V0H0Z" clip-rule="evenodd"/><mask id="533_svg__b" width="20" height="15" x="0" y="0" mask-type="alpha" maskUnits="userSpaceOnUse"><path fill="#fff" fill-rule="evenodd" d="M0 0V15H20V0H0Z" clip-rule="evenodd"/></mask><g fill-rule="evenodd" clip-rule="evenodd" mask="url(#533_svg__b)"><g filter="url(#533_svg__c)"><path fill="#EF2929" d="M3.5458 4.97482L0.807678 4.39687L3.57955 3.84839L4.38133 0.979736L5.01361 3.8251L7.4882 4.39965L5.0427 4.97482L4.33707 7.31451L3.5458 4.97482Z"/><path fill="red" d="M3.5458 4.97482L0.807678 4.39687L3.57955 3.84839L4.38133 0.979736L5.01361 3.8251L7.4882 4.39965L5.0427 4.97482L4.33707 7.31451L3.5458 4.97482Z"/></g><path fill="#FAD615" d="M20 9H0V10H20V9ZM20 11H0V12H20V11Z"/></g></g><defs><filter id="533_svg__c" width="8.681" height="8.335" x="-.192" y="-.02" color-interpolation-filters="sRGB" filterUnits="userSpaceOnUse"><feFlood flood-opacity="0" result="BackgroundImageFix"/><feColorMatrix in="SourceAlpha" values="0 0 0 0 0 0 0 0 0 0 0 0 0 0 0 0 0 0 127 0"/><feOffset/><feGaussianBlur stdDeviation=".5"/><feColorMatrix values="0 0 0 0 1 0 0 0 0 1 0 0 0 0 1 0 0 0 0.2 0"/><feBlend in2="BackgroundImageFix" result="effect1_dropShadow"/><feBlend in="SourceGraphic" in2="effect1_dropShadow" result="shape"/></filter></defs></svg>

<svg xmlns="http://www.w3.org/2000/svg" fill="none" viewBox="0 0 20 15"><mask id="533_svg__a" width="20" height="15" x="0" y="0" maskUnits="userSpaceOnUse"><path fill="#fff" d="M0 0h20v15H0z"/></mask><g mask="url(#533_svg__a)"><path fill="#5BA3DA" fill-rule="evenodd" d="M0 0v15h20V0H0z" clip-rule="evenodd"/><mask id="533_svg__b" width="20" height="15" x="0" y="0" maskUnits="userSpaceOnUse"><path fill="#fff" fill-rule="evenodd" d="M0 0v15h20V0H0z" clip-rule="evenodd"/></mask><g fill-rule="evenodd" clip-rule="evenodd" mask="url(#533_svg__b)"><g filter="url(#533_svg__c)"><path fill="#EF2929" d="M3.546 4.975L.808 4.397l2.772-.549.8-2.868.633 2.845 2.474.575-2.445.575-.706 2.34-.791-2.34z"/><path fill="red" d="M3.546 4.975L.808 4.397l2.772-.549.8-2.868.633 2.845 2.474.575-2.445.575-.706 2.34-.791-2.34z"/></g><path fill="#FAD615" d="M20 9H0v1h20V9zm0 2H0v1h20v-1z"/></g></g><defs><filter id="533_svg__c" width="8.681" height="8.335" x="-.192" y="-.02" color-interpolation-filters="sRGB" filterUnits="userSpaceOnUse"><feFlood flood-opacity="0" result="BackgroundImageFix"/><feColorMatrix in="SourceAlpha" values="0 0 0 0 0 0 0 0 0 0 0 0 0 0 0 0 0 0 127 0"/><feOffset/><feGaussianBlur stdDeviation=".5"/><feColorMatrix values="0 0 0 0 1 0 0 0 0 1 0 0 0 0 1 0 0 0 0.2 0"/><feBlend in2="BackgroundImageFix" result="effect1_dropShadow"/><feBlend in="SourceGraphic" in2="effect1_dropShadow" result="shape"/></filter></defs></svg>
